X:1
T:Far, Far Away
T:Far, Far Away
T:On Judea's Plains
T:John Menzies Macfarlane
T:arr. Dana Blake
C:John Menzies Macfarlane
Z:arr. Dana Blake
%%score 1 2 { ( 3 6 7 ) | ( 4 5 ) }
L:1/8
Q:1/4=112
M:4/4
K:Eb
V:1 treble nm="Mezzo-soprano" snm="Mzs."
V:2 treble nm="Alto" snm="A."
V:3 treble nm="Piano" snm="Pno."
V:6 treble 
V:7 treble 
V:4 bass 
V:5 bass 
V:1
 z8 | z8 | E2 E>F G2 G>A | B2 B>A G4 | F2 F>G A2 GB | cBAG G2 F2 | E2 E>F G2 z2 | B2 B>A G2 z2 | %8
w: ||Far, far a- way on Ju-|de- a's * plains,|Shep- herds of old heard the|joy- * ous * strains: *|Glo- ry to God,|Glo- ry to God,|
 c2 c>c B2 EE | A2 G2 F4 | E2 B,2 C2 D2 | E2 F2 G4 | B3 B B3 A | G2 F2 E4 | E2 E>F G2 G>A | %15
w: Glo- ry to God in the|high- * est;|Peace on earth, good-|will to men;|Peace on earth, good-|will to men!|Sweet are the strains of re-|
 B2 B>A G4 | F2 F>G A2 GB | cBAG G2 F2 | E2 E>F G4 | B2 B>A G4 | c2 c>c B2 EE | A2 G2 F4 | %22
w: deem- ing * love,|Mes- sage of mer- cy from|hea- * ven a bove: *|Glo- ry to God,|Glo- ry to God,|Glo- ry to God in the|high- * est;|
 E2 B,2 C2 D2 | E2 F2 G4 | B3 B B3 A | G2 F2 E4 | z8 | z8 |[K:Bb] z8 | z8 | B2 F>F B2 F>F | %31
w: Peace on earth, good-|will to men;|Peace on earth, good-|will to men!|||||Has- ten the time when from|
 D2 F2 B4 | F2 F>F F2 BB | E2 E2 F4 | c2 d>c B2 AG | F4 B2 GF | E4 D2 GF | E2 F2 F4 | F2 D2 E2 E2 | %39
w: ev- 'ry clime,|Men shall un- ite in the|strains sub- lime!|Glo- ry to God in the|high- est, in the|high- est, in the|high- * est!|Peace on earth, good-|
 F2 F2 F4 | ABcA B3 c | B2 A2 B4 | z8 |] %43
w: will to men,|Peace- * * on earth, good-|will to men.||
V:2
 z8 | z8 | z8 | z8 | z8 | z8 | E2 E>F G2 z2 | B2 B>A G2 z2 | c2 c>c B2 EE | A2 G2 F4 | %10
w: ||||||||||
 E2 B,2 C2 D2 | E2 F2 G4 | B3 B B3 A | G2 F2 E4 | E2 E>D E2 E>F | G2 G>F E4 | D2 D>E F2 EG | %17
w: |||||||
 AGFE E2 D2 | E2 E>D E2 E>F | G2 G>F E4 | E2 E>E F2 EE | FEDC C2 D2 | E2 B,2 C2 D2 | E2 F2 G4 | %24
w: |Lord, with the an- gels we|too would re- joice;|Help us to sing with the|heart * and * voi- ce:|Peace on earth, good-|will to men;|
 D3 D E3 F | E2 D2 E4 | z8 | z8 |[K:Bb] z8 | z8 | B,2 B,>C D2 D>E | F2 F>E D4 | C2 C>D E2 DE | %33
w: Peace on earth, good-|will to men!|||||Has- ten the time when from|ev- 'ry * clime,|Men shall un- ite in the|
 GFED D2 C2 | B,2 B,>C D4 | F2 F>E D4 | G2 G>G F2 B,B, | E2 D2 C4 | B,2 A,2 G,2 A,2 | B,2 C2 D4 | %40
w: strains * sub- * lime. *|Glo- ry to God!|Glo- ry to God!|Glo- ry to God in the|high- * est!|Peace on earth, good-|will to men,|
 F3 F F3 E | D2 C2 B,4 | z8 |] %43
w: Peace on earth, good-|will to men.||
V:3
 z8 | E8 | [EG]8 | [GB]8 | F4 A4 | c2 A2 G2 F2 | E2 E>F G4 | B2 B>A G4 | c2 c>c B2 EE | A2 G2 F4 | %10
 [G,E]2 B,2 C2 D2 | E2 F2 G4 | B3 B B3 A | G2 F2 E4 | E2 E>F G2 G>A | B2 B>A G4 | F2 F>G A2 GB | %17
 cBAG G2 F2 | E2 E>F G4 | B2 B>A [EG]4 | c2 c>c B2 EE | A2 G2 F4 | [G,E]2 B,2 C2 D2 | E2 F2 G4 | %24
 B3 B B3 A | G2 F2 E4 | E2 E>F G4 | B2 B>A G4 |[K:Bb] F3 F F3 E | D2 C2 B,4 | %30
 [B,B]2- [B,B]>C [B,D]2- [B,D]>E | [DF]2- [DF]>E [B,D]4 | [A,C]2- [A,C]>D [CE]2 DE | [CE]4 [DF]4 | %34
 B,2- B,>C [B,D]4 | [A,F]2- [A,F]>E [B,D]4 | [B,EG]4 [B,DF]4 | E2 D2 C4 | %38
 [F,B,]2 [D,A,]2 [E,G,]2 [E,A,]2 | B,2 [B,C]2 [A,D]4 | [A,CF]4 [B,F]3 E | [B,D]2 [A,C]2 [B,DB]4- | %42
 [B,DB]8 |] %43
V:4
 E,8 | [B,,E,]8 | [B,,E,]8 | [G,,E,]8 | [B,,E,]8 | E,8 | [E,G,]6 D,C, | [B,,F,]6 F,G, | %8
 [A,,A,]4 [E,G,]4 | [F,A,]2 [E,B,]2 [B,,B,]4 | E,,2 [E,,E,]2 [A,,E,]2 [F,,F,]2 | %11
 [G,,E,]2 [B,,D,]2 E,4 | [B,,F,]3 [B,,F,] E,F,G,A, | B,2 B,A, [E,G,]4 | E,2 B,,2 E,2 B,,2 | %15
 G,,2 B,,2 E,4 | B,,6 E,2 | A,,4 B,,4 | [E,G,]8 | [B,,E,]8 | [A,,A,]4 [E,G,]4 | %21
 [F,A,]2 [E,B,]2 [B,,B,]4 | E,,2 [E,,E,]2 [A,,E,]2 [F,,F,]2 | [G,,E,]2 [B,,D,]2 E,4 | %24
 [B,,F,]3 [B,,F,] E,F,G,A, | B,2 B,A, [E,G,]4 | [E,G,]6 D,C, | [B,,F,]6 F,G, | %28
[K:Bb] [F,C]3 [F,C] B,,C,D,E, | F,2 F,E, [B,,D,]4 | B,,G,, F,,2 B,,G,, F,,2 | D,,E,, F,,2 B,,4 | %32
 F,,A,, C,2 F,,A,, B,,2 | G,F,E,D, D,2 C,2 | F,E, D,2 C,D,A,,G,, | C,A,, F,,2 B,,A,,G,,F,, | %36
 G,,F,, E,,2 D,,F,,G,,F,, | E,,D,, F,,6 | F,,E,, D,,2 B,,G,, E,,2 | D,,E,, F,,6 | %40
 A,,B,,C,A,, B,,C,D,E, | F,3 E, [B,,D,]4- | [B,,D,]8 |] %43
V:5
 x8 | x8 | x8 | x8 | x8 | A,,4 B,,4 | x8 | x8 | x8 | x8 | x8 | x8 | x8 | B,,4 x4 | x8 | x8 | x8 | %17
 x8 | x8 | x8 | x8 | x8 | x8 | x8 | x8 | B,,4 x4 | x8 | x8 |[K:Bb] x8 | F,,4 x4 | x8 | x8 | x8 | %33
 x8 | x8 | x8 | x8 | x8 | x8 | x8 | x8 | x2 F,,2 x4 | x8 |] %43
V:6
 x8 | x8 | x8 | x8 | x8 | x8 | B,6 x2 | D4 E4 | E6 x2 | C4 D4 | x8 | x8 | x8 | x8 | x4 E4 | G4 E4 | %16
 D4 F2 E2 | A2 F2 E2 D2 | B,6 x2 | G4 x4 | E6 x2 | F2 D2 C2 D2 | x8 | x8 | x8 | x8 | B,6 x2 | %27
 D4 E4 |[K:Bb] x8 | x8 | x8 | x8 | x8 | x8 | x8 | x8 | x8 | G,A, B,2 A,4 | x8 | x8 | x8 | F,8 | %42
 x8 |] %43
V:7
 x8 | x8 | x8 | x8 | x8 | x8 | x8 | x8 | x8 | x8 | x8 | x8 | x8 | x8 | x8 | x8 | x8 | x8 | x8 | %19
 x8 | x8 | x8 | x8 | x8 | x8 | x8 | x8 | x8 |[K:Bb] x8 | x8 | x8 | x8 | x8 | x8 | x8 | x8 | x8 | %37
 x8 | x8 | F,8 | x8 | x8 | x8 |] %43

